X: 508
T: Zao xikao
L: 1/8
M: 2/4
K: F
c2c2 [I:setbarnb 1]| 
f g f d | 
c4 | 
f g f d | 
c d A G | 
F4 | 
G Ac2- | 
c2f d | 
c d A G | 
F4 | 
A2A c | 
A G F D | 
C4 |]

@@@ Tune index: 9382
